!!!Genre:	Hopke
!!!Mode:	Freygish
!!!Edition:	2001
!!!Listening/dance:	dance
!!!Free rhythm?:	No
!!!Secondary Modes:	All freygish
!!!One_Mode:	yes
**kern
*part1
*staff1
*clefG2
*k[b-e-a-]
*G:frey
*M2/4
*>A
=1-
16gLL
16g
16g
16gJJ
16gLL
16bnJ
8a-J
=2
16a-LL
16bnJ
8a-J
8gL
8fJ
=3
16gLL
16g
16g
16gJJ
16gLL
16cc
16bn
16a-JJ
=4
16gLL
16ccJ
[8bnJ
16bLL]
16a-
16g
16fJJ
=5
16gLL
16g
16g
16gJJ
16gLL
16bnJ
8a-J
=6
16a-LL
16bnJ
8a-J
8gL
8fJ
=7
16a-LL
16g
16a-
16gJJ
16a-LL
16cc
16bn
16a-JJ
=8
(<16a-LL
16gJJ)
4.g
=9:|!|:
*>B
16bnLL
16b
16b
16bJJ
(>16bLL
16ddJ
8ccJ)
=10
8bnL
8a-J
4cc
=11
16bnLL
16b
16b
16bJJ
(>8qb/
8ddL)
8ccJ
=12
8bnL
8a-J
4g
=13:|!|:
*>C
16bnLL
16ccJJ
4dd
(<16ddLL
16gJJ)
=14
8.ee-L
16ddJk
16ddLL
16cc
16bn
16gJJ
=15
8.ee-L
16ddJk
16ddLL
16cc
16bn
16ccJJ
=16
8dd
8r
4gg^u
=17
16bnLL
16ccJJ
4dd
8dd
=18
(>8.ee-L
16ddJk)
(>16ddLL
16bn)
(>16b
16gJJ)
=19
(>8.ccL
16bnJk)
(<8qcc/
16bLL)
16a-
16g
16fJJ
=20
4g
[8.gL
16gJk]
=21:|!|:
*>D
16bnLL
16cc
16b
16a-JJ
8gL
8gJ
=22
16bnLL
16cc
16b
16a-JJ
8gL
8gJ
=23
16gLL
16a-
16bn
16ccJJ
16ddLL
16ee-
16cc
16ee-JJ
=24
4dd
4gg
=25
16bnLL
16cc
16b
16a-JJ
8gL
8gJ
=26
16bnLL
16cc
16b
16a-JJ
8gL
8gJ
=27
16enLL
16f
16g
16a-JJ
16bnLL
16cc
16b
16a-JJ
=28
(<16a-LL
16gJJ)
4.g
=:|!
*-
